Papirus-nordic/64x64/places/folder-nordic-steam.svg

<svg xmlns="http://www.w3.org/2000/svg" width="64" height="64"><rect width="50" height="32" x="7" y="24" rx="2.5" ry="2.5" opacity=".2"/><path d="M7 44.5C7 45.885 8.115 47 9.5 47h45c1.385 0 2.5-1.115 2.5-2.5v-27c0-1.385-1.115-2.5-2.5-2.5H29v-2.5c0-1.385-1.115-2.5-2.5-2.5h-17A2.495 2.495 0 0 0 7 12.5" fill="#6c9b9a"/><rect width="50" height="32" x="7" y="22" rx="2.5" ry="2.5" opacity=".2"/><rect width="44" height="20" x="10" y="18" rx="2.5" ry="2.5" fill="#e4e4e4"/><rect width="50" height="32" x="7" y="23" rx="2.5" ry="2.5" fill="#82abaa"/><path d="M9.5 10A2.495 2.495 0 0 0 7 12.5v1C7 12.115 8.115 11 9.5 11h17c1.385 0 2.5 1.115 2.5 2.5v-1c0-1.385-1.115-2.5-2.5-2.5zM29 15v1h25.5c1.39 0 2.5 1.115 2.5 2.5v-1c0-1.385-1.11-2.5-2.5-2.5z" opacity=".1" fill="#fff"/><path d="M16 42.112l6.016 3.474A6 6 0 1 0 34 46a6.177 6.177 0 0 0-.066-.816l7.276-5.196A7 7 0 0 0 48 33a7 7 0 1 0-14 .028l-4.644 7.136A5.96 5.96 0 0 0 28 40c-.906.002-1.8.21-2.614.606L16 35.188M41 28a5 5 0 0 1 5 5 5 5 0 0 1-5 5 5 5 0 0 1-5-5 5 5 0 0 1 5-5zm0 2a3.001 3.001 0 0 0 0 6 3.001 3.001 0 0 0 0-6zM28 42c2.21 0 4 1.79 4 4s-1.79 4-4 4a3.999 3.999 0 0 1-3.918-3.222l1.41.816c1.44.83 3.266.342 4.098-1.098a2.994 2.994 0 0 0-1.098-4.098l-.676-.39c.062-.004.122-.006.184-.008z" fill="#4e6766"/></svg>

<svg xmlns="http://www.w3.org/2000/svg" width="64" height="64" version="1.1">
 <rect style="opacity:0.2" width="50" height="32" x="7" y="24" rx="2.5" ry="2.5"/>
 <path style="fill:#6c9b9a" d="M 7,44.5 C 7,45.885 8.115,47 9.5,47 H 54.5 C 55.885,47 57,45.885 57,44.5 V 17.5 C 57,16.115 55.885,15 54.5,15 H 29 V 12.5 C 29,11.115 27.885,10 26.5,10 H 9.5 C 8.115,10 7,11.115 7,12.5"/>
 <rect style="opacity:0.2" width="50" height="32" x="7" y="22" rx="2.5" ry="2.5"/>
 <rect style="fill:#e4e4e4" width="44" height="20" x="10" y="18" rx="2.5" ry="2.5"/>
 <rect style="fill:#82abaa" width="50" height="32" x="7" y="23" rx="2.5" ry="2.5"/>
 <path style="opacity:0.1;fill:#ffffff" d="M 9.5,10 C 8.115,10 7,11.115 7,12.5 V 13.5 C 7,12.115 8.115,11 9.5,11 H 26.5 C 27.885,11 29,12.115 29,13.5 V 12.5 C 29,11.115 27.885,10 26.5,10 Z M 29,15 V 16 H 54.5 C 55.89,16 57,17.115 57,18.5 V 17.5 C 57,16.115 55.89,15 54.5,15 Z"/>
 <path style="fill:#4e6766" d="M 16,42.112 22.016,45.586 C 22.006,45.724 22,45.862 22,46 22,49.314 24.686,52 28,52 31.314,52 34,49.314 34,46 33.996,45.726 33.974,45.454 33.934,45.184 L 41.21,39.988 C 44.99,39.874 47.996,36.78 48,33 48,29.134 44.866,26 41,26 37.134,26 33.998,29.134 34,33.028 L 29.356,40.164 C 28.912,40.058 28.456,40.002 28,40 27.094,40.002 26.2,40.21 25.386,40.606 L 16,35.188 M 41,28 C 43.762,28 46,30.238 46,33 46,35.762 43.762,38 41,38 38.238,38 36,35.762 36,33 36,30.238 38.238,28 41,28 Z M 41,30 C 39.344,30 38,31.344 38,33 38,34.656 39.344,36 41,36 42.656,36 44,34.656 44,33 44,31.344 42.656,30 41,30 Z M 28,42 C 30.21,42 32,43.79 32,46 32,48.21 30.21,50 28,50 26.092,49.998 24.452,48.648 24.082,46.778 L 25.492,47.594 C 26.932,48.424 28.758,47.936 29.59,46.496 30.42,45.056 29.932,43.23 28.492,42.398 L 27.816,42.008 C 27.878,42.004 27.938,42.002 28,42 Z"/>
</svg>
